build/img/daikin-logo.svg

<svg width="170" height="37" viewBox="0 0 170 37" fill="none" xmlns="http://www.w3.org/2000/svg">
<path d="M39.0277 0.572693H0.567871V36.4275L39.0277 0.572693Z" fill="#44C8F5"/>
<path d="M19.7942 0.572727H0.566895V18.5084L19.7942 0.572727Z" fill="#231F20"/>
<path d="M92.7328 8.35509L87.7124 28.6379H96.5826L101.599 8.35509H92.7328Z" fill="#00A0E4"/>
<path d="M72.4744 20.1105H70.4401L73.72 14.2592L74.7838 20.1105H72.4744ZM71.2123 8.35296L59.8047 28.6348H65.6713L67.5648 25.2541H75.7091L76.3159 28.6348H84.9746L81.2943 8.35296H71.2123Z" fill="#00A0E4"/>
<path d="M133.241 8.35509L128.234 28.6379H137.102L142.11 8.35509H133.241Z" fill="#00A0E4"/>
<path d="M129.277 8.35509H120.188L112.58 14.9898L114.241 8.35509H105.739L100.732 28.6379H109.207L110.938 21.6359L115.47 28.6379H125.728L118.13 18.0156L129.277 8.35509Z" fill="#00A0E4"/>
<path d="M52.8446 17.5725C52.8446 17.5725 52.2685 24.1605 46.713 24.1605H43.5698L46.3382 13.2206H49.1909C50.2116 13.2268 53.166 13.4945 52.8446 17.5725ZM52.3948 8.36443L50.1007 8.35717H39.0022L33.9951 28.6317H45.0156L49.3757 28.6379C55.5144 28.6379 61.5556 24.0204 61.5556 16.9478C61.5556 8.62591 52.3948 8.36443 52.3948 8.36443Z" fill="#00A0E4"/>
<path d="M163.294 8.35198L160.336 20.2953L156.394 8.35198H146.53L141.519 28.6379H147.653L150.64 16.5898L154.593 28.6379H164.415L169.434 8.35198H163.294Z" fill="#00A0E4"/>
</svg>

<svg width="170" height="37" viewBox="0 0 170 37" fill="none" xmlns="http://www.w3.org/2000/svg"><path d="M39.028.573H.568v35.855L39.028.573z" fill="#44C8F5"/><path d="M19.794.573H.567v17.935L19.794.573z" fill="#231F20"/><path d="M92.733 8.355l-5.02 20.283h8.87l5.016-20.283h-8.866zM72.474 20.11H70.44l3.28-5.85 1.064 5.85h-2.31zM71.212 8.353L59.805 28.635h5.866l1.894-3.38h8.144l.607 3.38h8.659l-3.68-20.282H71.211zm62.029.002l-5.007 20.283h8.868l5.008-20.283h-8.869zm-3.964 0h-9.089l-7.608 6.635 1.661-6.635h-8.502l-5.007 20.283h8.475l1.731-7.002 4.532 7.002h10.258l-7.598-10.622 11.147-9.66zm-76.432 9.218s-.576 6.587-6.132 6.587H43.57l2.768-10.94h2.853c1.02.007 3.975.274 3.654 4.353zm-.45-9.209L50.1 8.357H39.002l-5.007 20.275h11.02l4.36.006c6.14 0 12.18-4.618 12.18-11.69 0-8.322-9.16-8.584-9.16-8.584zm110.899-.012l-2.958 11.943-3.942-11.943h-9.864l-5.011 20.286h6.134l2.987-12.048 3.953 12.048h9.822l5.019-20.286h-6.14z" fill="#00A0E4"/></svg>
